svgs/thin/comments-question-check.svg

<svg xmlns="http://www.w3.org/2000/svg" viewBox="0 0 640 512"><!--! Font Awesome Pro 6.3.0 by @fontawesome - https://fontawesome.com License - https://fontawesome.com/license (Commercial License) Copyright 2023 Fonticons, Inc. --><path d="M228.7 80H183.3C159.4 80 140 99.38 140 123.2c0 4.422 3.578 8 8 8s8-3.578 8-8C156 108.2 168.3 96 183.3 96h45.44C245.1 96 260 109.1 260 127.2c0 11.88-6.625 22.55-17.38 27.91L204.3 174.9C201.7 176.3 200 179 200 182V208c0 4.422 3.578 8 8 8S216 212.4 216 208V186.9l33.86-17.53C265.1 161.3 276 145.1 276 127.2C276 101.2 254.8 80 228.7 80zM208 244.6C201.7 244.6 196.6 249.7 196.6 256c0 6.299 5.107 11.41 11.41 11.41S219.4 262.3 219.4 256C219.4 249.7 214.3 244.6 208 244.6zM416 176C416 78.8 322.9 0 208 0S0 78.8 0 176c0 39.57 15.62 75.96 41.67 105.4c-16.39 32.76-39.23 57.32-39.59 57.68c-2.1 2.205-2.67 5.475-1.441 8.354C1.9 350.3 4.602 352 7.66 352c38.35 0 70.76-11.12 95.74-24.04C134.2 343.1 169.8 352 208 352C322.9 352 416 273.2 416 176zM208 336c-34.14 0-67.86-7.742-97.51-22.39L103.2 310L96.05 313.7c-22.64 11.71-46.03 18.84-69.75 21.29c8.633-11.07 20.12-27.4 29.69-46.52l4.838-9.674L53.65 270.7C29.02 242.1 16 210.2 16 176c0-88.22 86.13-160 192-160s192 71.78 192 160S313.9 336 208 336zM599.6 443.7C624.8 413.9 640 376.6 640 336c0-89.54-72.1-163.3-167.4-174.4c-4.912-.5762-9.135 3.488-8.83 8.424c.2363 3.832 3.18 6.947 6.994 7.398C557.1 187.6 624 254.8 624 336c0 35.44-12.66 69.12-36.62 97.39l-6.918 8.168l4.91 9.512c9.25 17.92 20.15 33.37 28.38 43.96c-22.29-2.318-44.37-8.807-65.85-19.38l-7.174-3.529l-7.131 3.621C507.5 488.1 477.9 496 448 496c-73.58 0-136.6-41.33-162.8-99.74c-1.537-3.42-5.25-5.295-8.908-4.471l-.3594 .082c-4.859 1.096-7.426 6.369-5.389 10.91C299.2 466.8 367.8 512 448 512c33.69 0 65.32-8.008 92.85-21.98C565.2 502 596.1 512 632.3 512c3.059 0 5.76-1.725 7.02-4.605c1.229-2.879 .6582-6.148-1.441-8.354C637.6 498.7 615.9 475.3 599.6 443.7zM392.7 346.7c-3.125 3.125-3.125 8.188 0 11.31l43.64 43.64c1.5 1.5 3.531 2.344 5.656 2.344c1.657-.1875 4.266-.9062 5.782-2.469l91.64-96c3.062-3.203 2.938-8.266-.25-11.31c-3.203-3.031-8.25-2.922-11.31 .25l-85.98 90.08l-37.86-37.84C400.9 343.6 395.8 343.6 392.7 346.7z"/></svg>

<svg xmlns="http://www.w3.org/2000/svg" viewBox="0 0 640 512"><!-- Font Awesome Pro 6.0.0-alpha2 by @fontawesome - https://fontawesome.com License - https://fontawesome.com/license (Commercial License) --><path d="M228.734 80H183.297C159.422 80 140 99.375 140 123.203C140 127.625 143.578 131.203 148 131.203S156 127.625 156 123.203C156 108.203 168.25 96 183.297 96H228.734C245.969 96 260 109.984 260 127.156C260 139.031 253.375 149.703 242.625 155.062L204.328 174.891C201.672 176.266 200 179.016 200 182V208C200 212.422 203.578 216 208 216S216 212.422 216 208V186.859L249.859 169.328C265.984 161.297 276 145.141 276 127.156C276 101.156 254.797 80 228.734 80ZM208 244.594C201.701 244.594 196.594 249.699 196.594 256C196.594 262.299 201.701 267.406 208 267.406S219.406 262.299 219.406 256C219.406 249.699 214.299 244.594 208 244.594ZM416 176C416 78.797 322.875 0 208 0S0 78.797 0 176C0 215.57 15.621 251.963 41.672 281.359C25.285 314.123 2.443 338.68 2.082 339.041C-0.018 341.246 -0.588 344.516 0.641 347.395C1.9 350.275 4.602 352 7.66 352C46.006 352 78.418 340.879 103.402 327.955C134.156 343.146 169.818 352 208 352C322.875 352 416 273.201 416 176ZM208 336C173.861 336 140.143 328.258 110.488 313.609L103.236 310.027L96.051 313.744C73.41 325.455 50.021 332.588 26.297 335.039C34.93 323.969 46.42 307.635 55.982 288.516L60.82 278.842L53.646 270.748C29.018 242.957 16 210.193 16 176C16 87.775 102.131 16 208 16S400 87.775 400 176S313.869 336 208 336ZM599.594 443.736C624.828 413.945 640 376.635 640 336C640 246.455 567.004 172.678 472.609 161.596C467.697 161.02 463.475 165.084 463.779 170.02C464.016 173.852 466.959 176.967 470.773 177.418C557.092 187.607 624 254.797 624 336C624 371.438 611.34 405.115 587.385 433.395L580.467 441.562L585.377 451.074C594.627 468.998 605.531 484.445 613.76 495.035C591.467 492.717 569.391 486.229 547.91 475.66L540.736 472.131L533.605 475.752C507.514 488.998 477.912 496 448 496C374.422 496 311.426 454.666 285.184 396.256C283.646 392.836 279.934 390.961 276.275 391.785L275.916 391.867C271.057 392.963 268.49 398.236 270.527 402.781C299.229 466.83 367.783 512 448 512C481.693 512 513.322 503.992 540.848 490.018C565.244 502.02 596.086 512 632.34 512C635.398 512 638.1 510.275 639.359 507.395C640.588 504.516 640.018 501.246 637.918 499.041C637.566 498.689 615.867 475.266 599.594 443.736ZM392.703 346.703C389.578 349.828 389.578 354.891 392.703 358.016L436.344 401.656C437.844 403.156 439.875 404 442 404C443.656 403.812 446.266 403.094 447.781 401.531L539.422 305.531C542.484 302.328 542.359 297.266 539.172 294.219C535.969 291.188 530.922 291.297 527.859 294.469L441.875 384.547L404.016 346.703C400.891 343.578 395.828 343.578 392.703 346.703Z"/></svg>
